X: 2154
T: Şehnâz Aranağme (Sofyan)
C: ?
O: Turkey
F: http://compmusic.upf.edu/node/140
N: sehnaz--aranagme--sofyan--1--
N: makam= sehnaz
N: form= aranagme
N: usul= sofyan = 4/4
M: 4/4
L: 1/16
K: C _7/8B ^1/4f ^c ^g
Q: 1/4=108
%%MIDI tuningsystem comma53
.g2.a4z2 .=c'.=b.a2 z4  | .=c'.=b.a2 .c'.b.a2 .c'.b.a2 z4  | \
w:  ARANAĞME  |   | 
.^f2.=g4z2 .b.a.g2 z4  | 
w:   | 
.b.a.=g2 .b.a.g2 .b.a.g2 z4  | e2f4a2 g2{a}f2 {g}e2{f}d2  | \
w:   |   | 
efed c2d2 eABc defg  | 
w:   | 
agaf edef gfge dcde  | fefd cBBA A6z2  | 
w:   |   | 
.g2.a4z2 .=c'.=b.a2 z4  | .=c'.=b.a2 .c'.b.a2 .c'.b.a2 z4  | \
w:  ARANAĞME  |   | 
.^f2.=g4z2 .b.a.g2 z4  | 
w:   | 
.b.a.=g2 .b.a.g2 .b.a.g2 z4  | e2f4a2 g2{a}f2 {g}e2{f}d2  | \
w:   |   | 
efed c2d2 eABc defg  | 
w:   | 
agaf edef gfge dcde  | fefd cBBA A6z2  | 
w:   |   | 
|


